icons/file-badge-24.svg

<svg width="24" height="24" viewBox="0 0 24 24">
  <path
    d="M4 2.5C3.72386 2.5 3.5 2.72386 3.5 3V21C3.5 21.2761 3.72386 21.5 4 21.5H10C10.4142 21.5 10.75 21.8358 10.75 22.25C10.75 22.6642 10.4142 23 10 23H4C2.89543 23 2 22.1046 2 21V3C2 1.89543 2.89543 1 4 1H14.9822C15.5126 1 16.0213 1.21062 16.3964 1.58573L16.4603 1.64965C16.4659 1.65526 16.4691 1.65842 16.4691 1.65842L16.7803 1.96967C17.0732 2.26256 17.0732 2.73744 16.7803 3.03033C16.4874 3.32322 16.0126 3.32322 15.7197 3.03033L15.6417 2.95237C15.6433 2.95393 15.6433 2.95395 15.6379 2.94857L15.5449 2.85551C15.542 2.85262 15.5449 2.85551 15.5449 2.85551L15.3357 2.64639C15.242 2.55266 15.1149 2.5 14.9822 2.5H4Z"
  />
  <path
    d="M18 6.25C15.6528 6.25 13.75 8.15279 13.75 10.5C13.75 12.8472 15.6528 14.75 18 14.75C20.3472 14.75 22.25 12.8472 22.25 10.5C22.25 8.15279 20.3472 6.25 18 6.25ZM12.25 10.5C12.25 7.32436 14.8244 4.75 18 4.75C21.1756 4.75 23.75 7.32436 23.75 10.5C23.75 13.6756 21.1756 16.25 18 16.25C14.8244 16.25 12.25 13.6756 12.25 10.5Z"
  />
  <path
    d="M21.2834 14.8658L22.7379 22.8658C22.7862 23.1316 22.6879 23.4028 22.4805 23.5759C22.273 23.749 21.9886 23.7971 21.7358 23.7019L18.4404 22.4613C18.1565 22.3544 17.8435 22.3544 17.5596 22.4613L14.2642 23.7019C14.0114 23.7971 13.727 23.749 13.5195 23.5759C13.3121 23.4028 13.2138 23.1316 13.2621 22.8658L14.7166 14.8658L16.1924 15.1342L14.9747 21.8317L17.0311 21.0575C17.6556 20.8224 18.3444 20.8224 18.9689 21.0575L21.0253 21.8317L19.8076 15.1342L21.2834 14.8658Z"
  />
</svg>

<svg xmlns="http://www.w3.org/2000/svg" width="24" height="24" viewBox="0 0 24 24"><path d="M4 2.5a.5.5 0 0 0-.5.5v18a.5.5 0 0 0 .5.5h6a.75.75 0 0 1 0 1.5H4a2 2 0 0 1-2-2V3a2 2 0 0 1 2-2h10.982a2 2 0 0 1 1.414.586l.064.064.01.008.31.312a.75.75 0 0 1-1.06 1.06l-.078-.078-.004-.003-.093-.093c-.003-.003 0 0 0 0l-.21-.21a.5.5 0 0 0-.353-.146H4Z"/><path d="M18 6.25a4.25 4.25 0 1 0 0 8.5 4.25 4.25 0 0 0 0-8.5Zm-5.75 4.25a5.75 5.75 0 1 1 11.5 0 5.75 5.75 0 0 1-11.5 0Z"/><path d="m21.283 14.866 1.455 8a.75.75 0 0 1-1.002.836l-3.296-1.24a1.25 1.25 0 0 0-.88 0l-3.296 1.24a.75.75 0 0 1-1.002-.836l1.455-8 1.475.268-1.217 6.698 2.056-.774a2.75 2.75 0 0 1 1.938 0l2.056.774-1.217-6.698 1.475-.268Z"/></svg>
